libs/cities/src/data/berlin/u/svg/21-lines-merged.svg

<svg xmlns="http://www.w3.org/2000/svg" width="1661" height="1004" fill="none"><path stroke="#7E5330" stroke-width="8" d="M740.26 445.98h600.22c9.11 0 14.1 5.8 14.1 5.8l56.62 56.63s4.74 5.8 14.11 5.8 14.23-5.91 14.23-5.91l171.82-171.83" data-ubhnchn="3"/><path stroke="#224F86" stroke-width="8" d="M715.37,27.84v78.56c0,0 -0.58,7.64 5.86,14.08l100.25,100.24l2.14,2.17l188.58,188.58c6.44,6.43 5.86,14.07 5.86,14.07v384.04" data-ubhnchn="4"/><path stroke="#8C6DAB" stroke-width="8" d="M900.3 938.59V439.91s.58-7.64-5.86-14.08L668.27 199.66" data-ubhnchn="5"/><path stroke="#528DBA" stroke-width="8" d="M75.44,410.98h338.7c1.68,0 7.96,-0.35 14.24,5.92c6.27,6.27 5.8,14.07 5.8,14.07v243.68c0,9.18 5.9,14.18 5.9,14.18l24.59,24.58c6.43,6.43 14.17,5.86 14.17,5.86h232.68l-26.43,0.02h53.55c0,0 7.64,0.6 14.12,-5.87l76.42,-76.42c0,0 5.07,-5.85 14.17,-5.85c0,0 7.83,-0.42 14.14,5.9c6.32,6.3 57.4,57.75 57.4,57.75c0,0 4.9,5.83 14.15,5.83h128.39c0,0 7.79,-0.5 14.13,5.84l256.42,256.41" data-ubhnchn="7"/><path stroke="#F3791D" stroke-width="8" d="M532.55,895.29l40.83,-40.83c6.37,-6.38 5.83,-14.12 5.83,-14.12v-245.4l-0.01,11.4v-133.1c0,0 -0.65,-7.64 5.84,-14.13l237.9,-237.9" data-ubhnchn="9"/><path stroke="#007A5B" stroke-linejoin="round" stroke-width="8" d="m296.02 942.99 317.79-317.8s5.26-5.86 14.17-5.86h542.15" data-ubhnchn="12"/><path stroke="#7DAD4C" stroke-width="8" d="M511.57 607.4h659.26" data-ubhnchn="20"/><path stroke="#DA421E" stroke-linejoin="round" stroke-width="8" d="M220.83,454.78l71.6,71.62c6.68,6.67 14.15,5.8 14.15,5.8h126.3l1.77,0h117.56c9.13,0 14.14,5.83 14.14,5.83l52.11,52.12c0,0 5.27,5.87 14.17,5.87h68.15c0,0 7.2,-0.16 12.8,5.44l38.2,38.2c0,0 5.17,5.86 14.1,5.86c8.94,0 13.7,-5.37 14.2,-5.87c0.5,-0.5 5.8,-5.31 5.8,-14.13c0,-3.7 0.1,-13.65 0.1,-13.61l-0.09,-4.01v-59.93c0,0 -0.26,-8.05 5.84,-14.14c6.09,-6.1 13.12,-5.88 14.18,-5.88h93.42h-15.29h43.73c0,0 7.98,0.33 14.1,-5.8l122.48,-122.47c0,0 5.83,-5.14 5.83,-14.11v-129.54" data-ubhnchn="41"/><path stroke="#F0D722" stroke-width="8" d="M685.12 620.57V802.5" data-ubhnchn="44"/></svg>

<svg xmlns="http://www.w3.org/2000/svg" width="1661" height="1004" fill="none">
    <path stroke="#7E5330" stroke-width="8"
          d="M740.26 445.98h600.22c9.11 0 14.1 5.8 14.1 5.8l56.62 56.63s4.74 5.8 14.11 5.8 14.23-5.91 14.23-5.91l171.82-171.83"
          data-ubhnchn="3"/>
    <path stroke="#224F86" stroke-width="8"
          d="M715.37,27.84v78.56c0,0 -0.58,7.64 5.86,14.08l100.25,100.24l2.14,2.17l188.58,188.58c6.44,6.43 5.86,14.07 5.86,14.07v384.04"
          data-ubhnchn="4"/>
    <path stroke="#8C6DAB" stroke-width="8" d="M900.3 938.59V439.91s.58-7.64-5.86-14.08L668.27 199.66"
          data-ubhnchn="5"/>
    <path stroke="#528DBA" stroke-width="8"
          d="M 75.44 410.98 H 414.14 C 415.82 410.98 422.1 410.63 428.38 416.9 C 434.65 423.17 434.18 430.97 434.18 430.97 V 674.65 C 434.18 683.83 440.08 688.83 440.08 688.83 L 464.67 713.41 C 471.1 719.84 478.84 719.27 478.84 719.27 H 738.64 C 738.64 719.29 746.28 719.89 752.76 713.42 L 829.18 637 C 829.18 637 834.25 631.15 843.35 631.15 C 843.35 631.15 851.18 630.73 857.49 637.05 C 863.81 643.35 914.89 694.8 914.89 694.8 C 914.89 694.8 919.79 700.63 929.04 700.63 H 1057.43 C 1057.43 700.63 1065.22 700.13 1071.56 706.47 L 1327.98 962.88"
          data-ubhnchn="7"/>
    <path stroke="#F3791D" stroke-width="8"
          d="M 532.55 895.29 L 573.38 854.46 C 579.75 848.08 579.21 840.34 579.21 840.34 V 473.24 C 579.2 473.24 578.55 465.6 585.04 459.11 L 822.94 221.21"
          data-ubhnchn="9"/>
    <path stroke="#007A5B" stroke-linejoin="round" stroke-width="8"
          d="m296.02 942.99 317.79-317.8s5.26-5.86 14.17-5.86h542.15" data-ubhnchn="12"/>
    <path stroke="#7DAD4C" stroke-width="8" d="M511.57 607.4h659.26" data-ubhnchn="20"/>
    <path stroke="#DA421E" stroke-linejoin="round" stroke-width="8"
          d="M 220.83 454.78 L 292.43 526.4 C 299.11 533.07 306.58 532.2 306.58 532.2 H 432.88 L 434.65 532.2 H 552.21 C 561.34 532.2 566.35 538.03 566.35 538.03 L 618.46 590.15 C 618.46 590.15 623.73 596.02 632.63 596.02 H 700.78 C 700.78 596.02 707.98 595.86 713.58 601.46 L 751.78 639.66 C 751.78 639.66 756.95 645.52 765.88 645.52 C 774.82 645.52 779.58 640.15 780.08 639.65 C 780.58 639.15 785.88 634.34 785.88 625.52 C 785.88 621.82 785.98 611.87 785.98 611.91 L 785.89 607.9 V 547.97 C 785.89 547.97 785.63 539.92 791.73 533.83 C 797.82 527.73 804.85 527.95 805.91 527.95 H 927.77 C 927.77 527.95 935.75 528.28 941.87 522.15 L 1064.35 399.68 C 1064.35 399.68 1070.18 394.54 1070.18 385.57 V 256.03"
          data-ubhnchn="41"/>
    <path stroke="#F0D722" stroke-width="8" d="M685.12 620.57V802.5" data-ubhnchn="44"/>
</svg>
